src/assets/logos/SHIB.svg

<svg width="24" height="24" viewBox="0 0 24 24" fill="none" xmlns="http://www.w3.org/2000/svg">
<g clip-path="url(#clip0_23556_319534)">
<path d="M17.3749 2.11144C16.7573 2.729 16.1915 3.39834 15.6886 4.11205L15.5296 4.06028C14.6125 3.76074 13.6621 3.57584 12.7043 3.51298C12.4159 3.49079 11.3397 3.49079 10.9884 3.51298C9.92711 3.58324 9.11355 3.74225 8.18905 4.06398C8.15207 4.07877 8.11879 4.08986 8.08551 4.10096C7.56409 3.39094 6.9835 2.7253 6.34375 2.11513C9.41309 0.543486 13.0038 0.354888 16.2174 1.59372C16.5613 1.72315 16.8978 1.87476 17.227 2.03748L17.3749 2.11144Z" fill="#F00500"/>
<path d="M23.099 16.1379C22.6331 17.4654 21.9341 18.6969 21.0281 19.7693C20.5363 20.3462 19.9927 20.875 19.4084 21.3557C18.0402 22.4577 16.4426 23.2454 14.7378 23.6596C12.8519 24.1144 10.8845 24.1144 8.99855 23.6596C7.29008 23.2454 5.69624 22.4577 4.32798 21.3557C3.7437 20.875 3.20009 20.3462 2.70826 19.7693C0.101171 16.6889 -0.6902 12.4583 0.637381 8.64571C0.888844 7.93939 1.20317 7.25896 1.58037 6.61181C1.75418 6.31597 1.96866 5.98315 2.07221 5.84632C2.42721 7.37359 2.86357 8.71597 3.02629 9.20041C3.01519 9.22629 3.0004 9.25588 2.98561 9.28176C2.12398 11.0272 1.65803 12.7098 1.54709 14.4996C1.54709 14.5218 1.54339 14.5477 1.54339 14.5699C1.51381 15.1061 1.5286 15.3613 1.61735 15.6978C1.8947 16.7517 2.74894 17.9129 4.08761 19.0519C6.28053 20.9157 9.25371 22.2617 11.5058 22.4171C13.854 22.5761 17.319 21.2041 19.6266 19.1998C19.989 18.8781 20.3292 18.5379 20.6472 18.1755C20.8765 17.9092 21.2167 17.4506 21.1908 17.4506C21.1835 17.4506 21.1908 17.4432 21.2056 17.4359C21.2167 17.4285 21.2278 17.4174 21.2204 17.41C21.2167 17.4063 21.2241 17.3952 21.2352 17.3915C21.2463 17.3878 21.2537 17.3804 21.25 17.373C21.2463 17.3656 21.25 17.3582 21.2648 17.3545C21.2759 17.3508 21.2796 17.3397 21.2759 17.3323C21.2722 17.3249 21.2759 17.3175 21.2833 17.3175C21.2907 17.3175 21.2981 17.3064 21.2981 17.299C21.2981 17.2916 21.3055 17.2805 21.3129 17.2805C21.3203 17.2805 21.3277 17.2731 21.3277 17.2657C21.3388 17.2362 21.3573 17.2066 21.3757 17.1807C21.4312 17.0956 21.6531 16.6999 21.6827 16.6334C21.8935 16.1563 22.0266 15.7311 22.0895 15.3058C22.119 15.1024 22.1375 14.7289 22.1227 14.6402C22.119 14.6254 22.119 14.5995 22.1153 14.5588C22.108 14.4848 22.1043 14.3739 22.0969 14.263C22.0895 14.0966 22.0747 13.8636 22.0636 13.7489C21.9046 12.0701 21.4756 10.6981 20.662 9.24478C20.6288 9.18931 20.5992 9.13384 20.5807 9.08947C20.5733 9.07837 20.5696 9.06728 20.5659 9.05988C20.6805 8.71597 21.1502 7.27745 21.5237 5.63184L21.5311 5.63923L21.5865 5.71319C21.6827 5.84262 21.9378 6.22721 22.0525 6.41211C22.5739 7.26265 22.9807 8.17606 23.2691 9.13014C23.9385 11.4266 23.883 13.8747 23.099 16.1379Z" fill="#F00500"/>
<path d="M18.2985 11.7189C18.2874 11.778 18.1136 11.9556 17.9398 12.085C17.4295 12.4585 16.5161 12.8061 15.5879 12.9725C15.0591 13.0687 14.5302 13.0834 14.3712 13.0058C14.2677 12.954 14.2529 12.9133 14.2899 12.7802C14.3675 12.5029 14.619 12.1996 15.011 11.9149C15.2107 11.7707 16.0205 11.2788 16.3977 11.0717C17.019 10.7315 17.5219 10.5281 17.8622 10.48C17.9694 10.4653 18.0988 10.4616 18.1395 10.48C18.2061 10.5059 18.28 10.7019 18.3096 10.9386C18.3244 11.0643 18.317 11.619 18.2985 11.7189Z" fill="black"/>
<path d="M9.58568 12.9428C9.56349 12.9872 9.45255 13.0353 9.32681 13.0538C9.20108 13.0723 8.81649 13.0612 8.59831 13.0353C7.81433 12.9317 6.98228 12.6914 6.3758 12.3955C6.03559 12.2291 5.79152 12.0627 5.61031 11.8815L5.50677 11.7743L5.49568 11.6337C5.47719 11.3897 5.48089 11.0051 5.51047 10.8683C5.52896 10.7536 5.56964 10.6427 5.62511 10.5428C5.65469 10.5059 5.65469 10.5059 5.78782 10.5059C5.95053 10.5059 6.08736 10.5317 6.30924 10.602C6.76409 10.7425 7.44083 11.0827 8.26549 11.5783C8.94592 11.9851 9.20108 12.1848 9.39708 12.4584C9.53021 12.6285 9.61896 12.8689 9.58568 12.9428Z" fill="black"/>
<path d="M14.8229 18.0906C14.8229 18.1017 14.7786 18.2792 14.7231 18.49C14.6676 18.7008 14.6232 18.8709 14.6232 18.8783C14.5826 18.882 14.5456 18.8857 14.5049 18.882H14.3866L14.2239 19.2665C14.1351 19.4773 14.0537 19.6733 14.0427 19.7029L14.0205 19.7547L13.9428 19.6289L13.8652 19.5032V18.4789L13.8356 18.4863C13.7727 18.5011 13.3252 18.5602 13.1292 18.5787C12.3194 18.6601 11.5058 18.6416 10.6996 18.5269C10.5702 18.5085 10.4593 18.4937 10.4556 18.4974C10.4519 18.5011 10.4556 18.7377 10.463 19.0299L10.4741 19.555L10.4112 19.6511C10.3779 19.7029 10.3446 19.7473 10.3446 19.751C10.3335 19.7621 10.2966 19.7029 10.2115 19.5328C10.1191 19.3553 10.0525 19.1667 10.0044 18.9707L9.97853 18.8635L9.86389 18.8709L9.74926 18.882L9.71967 18.7451C9.70488 18.6712 9.68639 18.5565 9.67899 18.4937L9.6679 18.3753L9.57175 18.2903C9.51628 18.2422 9.46081 18.1941 9.44972 18.1867C9.43123 18.1719 9.42383 18.1461 9.42383 18.1239V18.0795L9.88608 18.0832L10.3483 18.0869L10.3631 18.135L10.3779 18.183L10.5369 18.1904C10.6257 18.1941 10.9067 18.2015 11.1582 18.2089L11.6205 18.22L11.7388 18.0351L11.8608 17.8502H12.0161L12.0124 17.4656L12.0087 17.081L11.8054 16.9923C11.1508 16.7038 10.7662 16.3747 10.622 15.9753C10.5924 15.894 10.5924 15.8644 10.585 15.4946C10.5813 15.1285 10.5813 15.0952 10.6072 15.0139C10.659 14.829 10.8032 14.6847 10.9881 14.6367C11.051 14.6182 11.2174 14.6182 12.0901 14.6182L13.1181 14.6219L13.2328 14.6773C13.3696 14.7439 13.4325 14.792 13.5101 14.8955C13.5989 15.0138 13.6248 15.1063 13.6248 15.3319C13.6248 15.6536 13.6026 15.931 13.5693 16.0419C13.5212 16.1935 13.4473 16.3377 13.3548 16.4672C13.1699 16.7038 12.8334 16.9405 12.5265 17.0477L12.4377 17.081L12.4414 17.4693L12.4451 17.8576L12.5265 17.865L12.6078 17.8724L12.7188 18.0388L12.826 18.2052H13.3215C13.5952 18.2052 13.8356 18.2089 13.8578 18.2126C13.8947 18.22 13.9021 18.2163 13.9391 18.1535L13.9835 18.0869H14.4088C14.7268 18.0721 14.8229 18.0795 14.8229 18.0906Z" fill="black"/>
<path d="M12.8704 19.1517C12.8001 19.1924 12.7521 19.2109 12.741 19.2035C12.7299 19.1998 12.6781 19.1554 12.6226 19.1148L12.5228 19.0334L12.4192 19.1443C12.1937 19.3884 12.1863 19.3995 12.1197 19.4032C12.0162 19.4143 11.994 19.3958 11.8682 19.2072C11.8017 19.1111 11.7499 19.0297 11.7499 19.0297C11.7499 19.0297 11.7018 19.0223 11.6464 19.0186L11.5428 19.0075L11.4947 19.1074L11.4467 19.2072L11.3616 19.1813C11.2951 19.1591 11.2285 19.1333 11.1656 19.1037L11.0547 19.0482V18.8374L12.0384 18.8411L13.022 18.8448L13.0257 18.9446C13.0294 19.063 13.0331 19.0593 12.8704 19.1517Z" fill="black"/>
<path d="M22.1151 14.6402C22.1114 14.6254 22.1114 14.5996 22.1077 14.5589C21.2202 14.4627 18.6871 14.4036 16.3351 16.345C16.3351 16.345 15.577 12.8689 12.027 12.8689C8.47689 12.8689 7.1604 16.345 7.1604 16.345C5.17088 14.2039 2.50832 14.3592 1.54684 14.4997C1.54684 14.5219 1.54314 14.5478 1.54314 14.57C1.51356 15.1062 1.52835 15.3613 1.6171 15.6979C1.89445 16.7518 2.74869 17.913 4.08737 19.0519C6.28028 20.9157 9.25347 22.2618 11.5056 22.4171C13.8538 22.5761 17.3188 21.2042 19.6264 19.1999C19.9888 18.8781 20.329 18.5379 20.647 18.1755C20.8763 17.9093 21.2165 17.4507 21.1906 17.4507C21.1832 17.4507 21.1906 17.4433 21.2054 17.4359C21.2165 17.4285 21.2276 17.4174 21.2202 17.41C21.2165 17.4063 21.2239 17.3952 21.235 17.3915C21.2461 17.3878 21.2535 17.3805 21.2498 17.3731C21.2461 17.3657 21.2498 17.3583 21.2646 17.3546C21.2757 17.3509 21.2794 17.3398 21.2757 17.3324C21.272 17.325 21.2757 17.3176 21.2831 17.3176C21.2905 17.3176 21.2979 17.3065 21.2979 17.2991C21.2979 17.2917 21.3052 17.2806 21.3126 17.2806C21.32 17.2806 21.3274 17.2732 21.3274 17.2658C21.3385 17.2362 21.357 17.2066 21.3755 17.1808C21.431 17.0957 21.6529 16.7 21.6824 16.6335C21.8932 16.1564 22.0264 15.7311 22.0892 15.3059C22.1114 15.1025 22.1299 14.729 22.1151 14.6402ZM12.8701 19.1518C12.7999 19.1925 12.7518 19.211 12.7407 19.2036C12.7296 19.1999 12.6778 19.1555 12.6223 19.1148L12.5225 19.0335L12.419 19.1444C12.1934 19.3885 12.186 19.3996 12.1194 19.4033C12.0159 19.4144 11.9937 19.3959 11.868 19.2073C11.8014 19.1111 11.7496 19.0298 11.7496 19.0298C11.7496 19.0298 11.7015 19.0224 11.6461 19.0187L11.5425 19.0076L11.4945 19.1074L11.4464 19.2073L11.3613 19.1814C11.2948 19.1592 11.2282 19.1333 11.1653 19.1037L11.0544 19.0482V18.8375L12.0381 18.8412L13.0217 18.8449L13.0254 18.9447C13.0291 19.063 13.0328 19.0593 12.8701 19.1518ZM14.7191 18.4862C14.6636 18.6969 14.6193 18.867 14.6193 18.8744C14.5786 18.8781 14.5416 18.8818 14.5009 18.8781H14.3826L14.2236 19.2664C14.1348 19.4772 14.0535 19.6732 14.0424 19.7028L14.0202 19.7546L13.9425 19.6288L13.8649 19.5031V18.4788L13.8353 18.4862C13.7724 18.5009 13.325 18.5601 13.129 18.5786C12.3191 18.66 11.5055 18.6415 10.6994 18.5268C10.57 18.5083 10.459 18.4935 10.4553 18.4972C10.4516 18.5009 10.4553 18.7376 10.4627 19.0298L10.4738 19.5549L10.4109 19.651C10.3777 19.7028 10.3444 19.7472 10.3444 19.7509C10.3333 19.762 10.2963 19.7028 10.2113 19.5327C10.1188 19.3552 10.0522 19.1666 10.0042 18.9706L9.97828 18.8633L9.86364 18.8707L9.749 18.8818L9.71942 18.745C9.70462 18.6711 9.68614 18.5564 9.67874 18.4935L9.66765 18.3752L9.5715 18.2902C9.51603 18.2421 9.46056 18.194 9.44947 18.1866C9.43098 18.1718 9.42358 18.1459 9.42358 18.1237V18.0794L9.88583 18.0831L10.3481 18.0868L10.3629 18.1348L10.3777 18.1829L10.5367 18.1903C10.6254 18.194 10.9065 18.2014 11.1579 18.2088L11.6202 18.2199L11.7385 18.035L11.8606 17.8501H12.0159L12.0122 17.4655L12.0085 17.0809L11.8051 16.9922C11.1505 16.7037 10.766 16.3746 10.6217 15.9752C10.5921 15.8939 10.5921 15.8643 10.5847 15.4945C10.5811 15.1284 10.581 15.0951 10.6069 15.0137C10.6587 14.8288 10.8029 14.6846 10.9878 14.6365C11.0507 14.618 11.2171 14.618 12.0898 14.618L13.1179 14.6217L13.2325 14.6772C13.3693 14.7438 13.4322 14.7919 13.5099 14.8954C13.5986 15.0137 13.6245 15.1062 13.6245 15.3318C13.6245 15.6535 13.6023 15.9308 13.569 16.0418C13.521 16.1934 13.447 16.3376 13.3545 16.467C13.1696 16.7037 12.8331 16.9404 12.5262 17.0476L12.4374 17.0809L12.4411 17.4692L12.4448 17.8575L12.5262 17.8649L12.6076 17.8723L12.7185 18.0387L12.8257 18.2051H13.3213C13.5949 18.2051 13.8353 18.2088 13.8575 18.2125C13.8945 18.2199 13.9019 18.2162 13.9388 18.1533L13.9832 18.0868H14.4085C14.7376 18.0868 14.8337 18.0905 14.8337 18.1016C14.8227 18.0979 14.7746 18.2791 14.7191 18.4862Z" fill="white"/>
<path d="M22.0851 14.2631C22.0777 14.0967 22.0629 13.8637 22.0518 13.7491C21.8928 12.0702 21.4639 10.6982 20.6503 9.2449C20.617 9.18943 20.5874 9.13396 20.569 9.08959C20.5616 9.07849 20.5579 9.0674 20.5542 9.06C20.6688 8.71609 21.1384 7.27757 21.5119 5.63196C22.0186 3.39837 22.3403 0.787592 21.3566 0.0036171C21.3566 0.0036171 19.6556 -0.122115 17.3776 2.11147C16.76 2.72904 16.1942 3.39838 15.6913 4.11209L15.5323 4.06032C14.6152 3.76078 13.6648 3.57588 12.707 3.51301C12.4186 3.49082 11.3425 3.49082 10.9911 3.51301C9.92982 3.58327 9.11626 3.74229 8.19176 4.06401C8.15478 4.07881 8.1215 4.0899 8.08821 4.10099C7.5668 3.39098 6.98621 2.72534 6.34646 2.11517C3.97604 -0.12951 2.2121 -8.11213e-05 2.2121 -8.11213e-05C1.16926 0.809779 1.52427 3.5389 2.06418 5.84645C2.41919 7.37372 2.85555 8.71609 3.01826 9.20053C3.00717 9.22641 2.99238 9.256 2.97758 9.28188C2.11595 11.0273 1.65 12.7099 1.53906 14.4998C2.50424 14.3592 5.1631 14.2002 7.15632 16.3451C7.15632 16.3451 8.47281 12.8689 12.0229 12.8689C15.573 12.8689 16.3311 16.3451 16.3311 16.3451C18.683 14.4036 21.2161 14.4665 22.1036 14.5589C22.0999 14.485 22.0925 14.374 22.0851 14.2631ZM3.71718 7.80638C3.71718 7.80638 2.33413 4.34876 2.68914 2.37403C2.74831 2.04121 2.85925 1.74907 3.03305 1.52719C3.03305 1.52719 4.601 1.68251 7.13043 4.49298C7.13043 4.49298 6.6497 4.72596 6.00624 5.22149C6.00624 5.22149 6.00254 5.22518 5.99885 5.22518C5.29992 5.76139 4.40501 6.61193 3.71718 7.80638ZM9.5859 12.9429C9.56371 12.9873 9.45278 13.0353 9.32704 13.0538C9.20131 13.0723 8.81672 13.0612 8.59854 13.0353C7.81456 12.9318 6.98252 12.6914 6.37604 12.3956C6.03583 12.2292 5.79176 12.0628 5.61056 11.8816L5.50702 11.7743L5.49592 11.6338C5.47743 11.3897 5.48113 11.0051 5.51071 10.8683C5.5292 10.7537 5.56988 10.6427 5.62535 10.5429C5.65493 10.5059 5.65493 10.5059 5.78806 10.5059C5.95077 10.5059 6.0876 10.5318 6.30948 10.6021C6.76433 10.7426 7.44107 11.0828 8.26572 11.5783C8.94615 11.9851 9.20131 12.1848 9.39731 12.4585C9.53043 12.6286 9.61918 12.8689 9.5859 12.9429ZM18.2984 11.7189C18.2873 11.778 18.1135 11.9555 17.9397 12.085C17.4294 12.4585 16.516 12.8061 15.5878 12.9725C15.0589 13.0686 14.5301 13.0834 14.3711 13.0058C14.2676 12.954 14.2528 12.9133 14.2898 12.7802C14.3674 12.5028 14.6189 12.1996 15.0109 11.9149C15.2106 11.7706 16.0204 11.2788 16.3976 11.0717C17.0189 10.7315 17.5218 10.5281 17.862 10.48C17.9693 10.4652 18.0987 10.4615 18.1394 10.48C18.2059 10.5059 18.2799 10.7019 18.3095 10.9386C18.3243 11.0643 18.3169 11.619 18.2984 11.7189ZM17.6845 5.22149L17.6771 5.21779C17.0559 4.72226 16.5899 4.48928 16.5899 4.48928C19.0343 1.67881 20.5468 1.52349 20.5468 1.52349C20.7132 1.74907 20.8204 2.03751 20.8796 2.37033C21.2235 4.34506 19.8885 7.80638 19.8885 7.80638C19.3301 6.81162 18.5794 5.9315 17.6845 5.22149Z" fill="#FFA409"/>
<path d="M20.8832 2.37028C20.5947 2.3333 19.2302 2.3259 17.6844 5.22143L17.677 5.21774C17.0558 4.7222 16.5898 4.48923 16.5898 4.48923C19.0342 1.67875 20.5467 1.52344 20.5467 1.52344C20.7168 1.74902 20.824 2.03746 20.8832 2.37028Z" fill="#FF9300"/>
<path d="M19.8913 7.80644C19.3292 6.80798 18.5822 5.93155 17.6836 5.22154C19.2293 2.32601 20.5902 2.3334 20.8823 2.37038C21.2263 4.34881 19.8913 7.80644 19.8913 7.80644Z" fill="#FF8300"/>
<path d="M20.9383 2.38145C20.9198 2.37776 20.9013 2.37406 20.8828 2.37036L20.9383 2.38145Z" fill="#FF8300"/>
<path d="M7.13054 4.48923C7.13054 4.48923 6.6498 4.7222 6.00635 5.21774C6.00635 5.21774 6.00265 5.22143 5.99895 5.22143C4.39772 2.3222 2.98878 2.3333 2.68555 2.37028C2.74471 2.03746 2.85566 1.74532 3.02946 1.52344C3.03316 1.52344 4.60111 1.67875 7.13054 4.48923Z" fill="#FF9300"/>
<path d="M6.00254 5.22154C5.29992 5.76145 4.40501 6.60829 3.71718 7.80644C3.71718 7.80644 2.33412 4.34881 2.68913 2.37038C2.98867 2.3334 4.40131 2.32601 6.00254 5.22154Z" fill="#FF8300"/>
<path d="M2.69003 2.37036C2.67154 2.37406 2.64935 2.37776 2.63086 2.38145L2.69003 2.37036Z" fill="#FF8300"/>
<path d="M16.1498 9.7256C16.1498 9.7256 14.9664 9.79956 15.1144 8.87506C15.2623 7.95056 16.1868 7.83962 16.4456 7.8766C16.7045 7.91358 17.7399 8.28338 17.555 9.05996C17.3701 9.83654 17.1113 9.68862 16.9634 9.7256C16.8154 9.76258 16.1498 9.7256 16.1498 9.7256Z" fill="white"/>
<path d="M7.42323 9.7256C7.42323 9.7256 6.23988 9.79956 6.3878 8.87506C6.53572 7.95056 7.46021 7.83962 7.71907 7.8766C7.97793 7.91358 9.01337 8.28338 8.82847 9.05996C8.64357 9.83654 8.38471 9.68862 8.23679 9.7256C8.08887 9.76258 7.42323 9.7256 7.42323 9.7256Z" fill="white"/>
</g>
<defs>
<clipPath id="clip0_23556_319534">
<rect width="23.73" height="24" fill="white"/>
</clipPath>
</defs>
</svg>

<svg fill="none" height="24" width="24" xmlns="http://www.w3.org/2000/svg"><clipPath id="a"><path d="M0 0h23.73v24H0z"/></clipPath><g clip-path="url(#a)"><path d="M17.375 2.111a15.275 15.275 0 0 0-1.686 2.001l-.16-.052c-.916-.3-1.867-.484-2.825-.547a22.106 22.106 0 0 0-1.716 0c-1.06.07-1.874.23-2.799.551-.037.015-.07.026-.103.037a15.053 15.053 0 0 0-1.742-1.986 12.107 12.107 0 0 1 10.883-.078zm5.724 14.027a11.547 11.547 0 0 1-2.07 3.631 12.864 12.864 0 0 1-1.62 1.587 11.95 11.95 0 0 1-4.671 2.304 12.241 12.241 0 0 1-5.74 0 11.926 11.926 0 0 1-4.67-2.304 12.867 12.867 0 0 1-1.62-1.587A11.413 11.413 0 0 1 .638 8.646c.25-.707.565-1.387.942-2.034.174-.296.389-.629.492-.766.355 1.528.792 2.87.954 3.354a.836.836 0 0 1-.04.082c-.862 1.745-1.328 3.428-1.439 5.218 0 .022-.004.048-.004.07-.03.536-.014.791.074 1.128.278 1.054 1.132 2.215 2.47 3.354 2.194 1.864 5.167 3.21 7.419 3.365 2.348.16 5.813-1.213 8.12-3.217.363-.322.703-.662 1.021-1.025.23-.266.57-.724.544-.724-.007 0 0-.008.015-.015.01-.008.022-.019.014-.026-.003-.004.004-.015.015-.019s.019-.01.015-.018 0-.015.015-.019c.01-.003.015-.014.01-.022s0-.015.008-.015.015-.01.015-.018.008-.019.015-.019.015-.007.015-.014c.01-.03.03-.06.048-.085.055-.085.277-.481.307-.548.21-.477.344-.902.407-1.327.029-.204.048-.577.033-.666-.004-.015-.004-.04-.008-.081-.007-.074-.01-.185-.018-.296-.007-.166-.022-.4-.033-.514-.16-1.679-.588-3.05-1.402-4.504a1.296 1.296 0 0 1-.081-.156c-.008-.01-.011-.022-.015-.03.115-.343.584-1.782.958-3.427l.007.007.056.074c.096.13.35.514.466.7.52.85.928 1.763 1.216 2.717a11.54 11.54 0 0 1-.17 7.008z" fill="#f00500"/><g fill="#000"><path d="M18.299 11.719c-.012.059-.185.237-.36.366-.51.373-1.423.721-2.351.887-.529.097-1.058.111-1.217.034-.103-.052-.118-.093-.081-.226.078-.277.329-.58.721-.865.2-.144 1.01-.636 1.387-.843.621-.34 1.124-.544 1.464-.592.107-.015.237-.018.278 0 .066.026.14.222.17.459.014.125.007.68-.011.78zm-8.713 1.224c-.023.044-.133.092-.26.11a4.18 4.18 0 0 1-.728-.018c-.784-.103-1.616-.344-2.222-.64-.34-.166-.584-.332-.766-.513l-.103-.108-.011-.14c-.019-.244-.015-.629.014-.766.019-.114.06-.225.115-.325.03-.037.03-.037.163-.037.163 0 .3.026.521.096.455.14 1.132.48 1.956.976.68.407.936.607 1.132.88.133.17.222.41.189.485zm5.237 5.147c0 .012-.044.19-.1.4s-.1.38-.1.388c-.04.004-.077.008-.118.004h-.118l-.163.384c-.089.211-.17.407-.181.437l-.022.052-.078-.126-.078-.126V18.48l-.03.007c-.062.015-.51.074-.706.093-.81.081-1.623.063-2.43-.052-.129-.019-.24-.033-.243-.03s0 .24.007.533l.011.525-.063.096c-.033.052-.066.096-.066.1-.011.011-.048-.048-.133-.218a2.503 2.503 0 0 1-.208-.562l-.025-.108-.115.008-.115.011-.03-.137a3.911 3.911 0 0 1-.04-.251l-.011-.119-.096-.085a3.413 3.413 0 0 0-.122-.103c-.019-.015-.026-.04-.026-.063v-.045l.462.004.462.004.015.048.015.048.159.007c.089.004.37.011.621.019l.462.011.119-.185.122-.185h.155l-.004-.384-.003-.385-.204-.089c-.654-.288-1.039-.617-1.183-1.017-.03-.081-.03-.11-.037-.48-.004-.367-.004-.4.022-.481a.537.537 0 0 1 .381-.377c.063-.019.23-.019 1.102-.019l1.028.004.115.055c.137.067.2.115.277.218.089.119.115.211.115.437 0 .322-.022.599-.056.71a1.534 1.534 0 0 1-.214.425 1.97 1.97 0 0 1-.829.58l-.088.034.003.388.004.389.081.007.082.007.11.167.108.166h.495c.274 0 .515.004.537.008.037.007.044.003.081-.06l.044-.066h.426c.318-.015.414-.007.414.004z"/><path d="M12.87 19.152c-.07.04-.118.059-.129.052-.011-.004-.063-.049-.118-.09l-.1-.08-.104.11c-.225.244-.233.256-.3.26-.103.01-.125-.008-.25-.197-.067-.096-.12-.177-.12-.177s-.047-.008-.103-.011l-.103-.011-.048.1-.048.1-.085-.027a1.807 1.807 0 0 1-.196-.077l-.111-.056v-.21l.983.003.984.004.004.1c.003.118.007.114-.156.207z"/></g><path d="M22.115 14.64c-.004-.015-.004-.04-.007-.081a7.864 7.864 0 0 0-5.773 1.786s-.758-3.476-4.308-3.476-4.867 3.476-4.867 3.476c-1.99-2.141-4.652-1.986-5.613-1.845 0 .022-.004.048-.004.07-.03.536-.015.791.074 1.128.277 1.054 1.132 2.215 2.47 3.354 2.193 1.864 5.166 3.21 7.419 3.365 2.348.16 5.813-1.213 8.12-3.217.363-.322.703-.662 1.021-1.024.23-.267.57-.725.544-.725-.008 0 0-.008.014-.015.012-.007.023-.019.015-.026-.003-.004.004-.015.015-.018s.019-.011.015-.019 0-.015.015-.018c.01-.004.014-.015.01-.023s0-.014.008-.014.015-.012.015-.019.007-.018.015-.018.014-.008.014-.015a9.422 9.422 0 0 0 .355-.633 5.1 5.1 0 0 0 .407-1.327c.022-.204.04-.577.026-.666zm-9.245 4.512c-.07.04-.118.059-.13.052-.01-.004-.062-.048-.118-.09l-.1-.08-.103.11c-.226.245-.233.256-.3.26-.103.01-.125-.008-.251-.197-.067-.096-.118-.177-.118-.177s-.048-.008-.104-.011l-.103-.011-.048.1-.049.1-.085-.027a1.807 1.807 0 0 1-.196-.077l-.11-.056v-.21l.983.003.984.004.003.1c.004.118.008.114-.155.207zm1.85-.666c-.056.21-.1.381-.1.388-.041.004-.078.008-.12.004h-.117l-.16.388c-.088.211-.17.407-.18.437l-.023.052-.077-.126-.078-.126V18.48l-.03.007c-.063.015-.51.074-.706.093-.81.081-1.623.063-2.43-.052-.129-.019-.24-.033-.244-.03s0 .24.008.533l.01.525-.062.096c-.033.052-.067.096-.067.1-.01.011-.048-.048-.133-.218a2.493 2.493 0 0 1-.207-.562l-.026-.108-.114.008-.115.01-.03-.136a3.895 3.895 0 0 1-.04-.252l-.011-.118-.096-.085a3.413 3.413 0 0 0-.123-.103c-.018-.015-.025-.041-.025-.063v-.045l.462.004.462.004.015.048.015.048.159.007c.088.004.37.011.62.019l.463.01.119-.184.122-.185h.155l-.004-.385-.003-.384-.204-.089c-.654-.288-1.039-.617-1.183-1.017-.03-.081-.03-.11-.037-.48-.004-.367-.004-.4.022-.481a.538.538 0 0 1 .38-.377c.064-.019.23-.019 1.103-.019l1.028.004.115.055a.65.65 0 0 1 .277.218c.089.119.115.211.115.437 0 .322-.023.599-.056.71a1.53 1.53 0 0 1-.215.425 1.97 1.97 0 0 1-.828.58l-.089.034.004.388.004.389.081.007.082.007.11.167.108.166h.495c.274 0 .514.004.536.008.037.007.045.003.082-.06l.044-.066h.425c.33 0 .426.004.426.015-.011-.004-.06.177-.115.384z" fill="#fff"/><path d="M22.085 14.263a12.49 12.49 0 0 0-.033-.514c-.16-1.679-.588-3.05-1.402-4.504a1.267 1.267 0 0 1-.081-.155l-.015-.03c.115-.344.584-1.782.958-3.428.507-2.234.828-4.844-.155-5.628 0 0-1.701-.126-3.98 2.107a15.276 15.276 0 0 0-1.686 2.001l-.159-.052c-.917-.3-1.867-.484-2.825-.547a22.106 22.106 0 0 0-1.716 0c-1.061.07-1.875.23-2.8.551-.036.015-.07.026-.103.037a15.053 15.053 0 0 0-1.742-1.986C3.976-.13 2.212 0 2.212 0c-1.043.81-.688 3.539-.148 5.846.355 1.528.792 2.87.954 3.355a.831.831 0 0 1-.04.08C2.116 11.028 1.65 12.71 1.539 14.5c.965-.14 3.624-.3 5.617 1.845 0 0 1.317-3.476 4.867-3.476s4.308 3.476 4.308 3.476a7.882 7.882 0 0 1 5.773-1.786 20.98 20.98 0 0 0-.019-.296zM3.717 7.806S2.334 4.35 2.69 2.374c.06-.333.17-.625.344-.847 0 0 1.568.156 4.097 2.966 0 0-.48.233-1.124.728 0 0-.003.004-.007.004a8.89 8.89 0 0 0-2.282 2.581zm5.869 5.137c-.022.044-.133.092-.259.11a4.18 4.18 0 0 1-.728-.018c-.784-.103-1.616-.344-2.223-.64-.34-.166-.584-.332-.765-.513l-.104-.108-.011-.14c-.019-.244-.015-.629.015-.766.018-.114.059-.225.114-.325.03-.037.03-.037.163-.037.163 0 .3.026.521.096.455.14 1.132.48 1.957.976.68.407.935.607 1.131.88.133.17.222.41.189.485zm8.712-1.224c-.01.059-.184.237-.358.366-.51.373-1.424.721-2.352.887-.53.097-1.058.111-1.217.034-.103-.052-.118-.093-.081-.226.077-.277.329-.58.72-.865.2-.144 1.01-.636 1.388-.843.62-.34 1.124-.544 1.464-.592.107-.015.237-.018.277 0 .067.026.14.222.17.459.015.125.008.68-.01.78zm-.613-6.498-.008-.003c-.621-.496-1.087-.729-1.087-.729 2.444-2.81 3.957-2.966 3.957-2.966.166.226.273.515.333.847.344 1.975-.991 5.436-.991 5.436a8.808 8.808 0 0 0-2.204-2.585z" fill="#ffa409"/><path d="M20.883 2.37c-.288-.037-1.653-.044-3.199 2.851l-.007-.003c-.621-.496-1.087-.729-1.087-.729 2.444-2.81 3.957-2.966 3.957-2.966.17.226.277.514.336.847z" fill="#ff9300"/><path d="M19.891 7.806a8.774 8.774 0 0 0-2.207-2.584c1.545-2.896 2.906-2.889 3.198-2.852.344 1.979-.99 5.436-.99 5.436zm1.047-5.425-.055-.01z" fill="#ff8300"/><path d="M7.13 4.49s-.48.232-1.124.728c0 0-.003.003-.007.003-1.601-2.899-3.01-2.888-3.313-2.85.059-.334.17-.626.343-.848.004 0 1.572.156 4.102 2.966z" fill="#ff9300"/><path d="M6.003 5.222a8.864 8.864 0 0 0-2.286 2.584S2.334 4.35 2.69 2.37c.3-.037 1.712-.044 3.314 2.852zM2.69 2.37l-.06.011z" fill="#ff8300"/><path d="M16.15 9.726s-1.184.074-1.036-.85c.148-.925 1.073-1.036 1.332-1 .258.038 1.294.407 1.109 1.184s-.444.629-.592.666c-.148.037-.813 0-.813 0zm-8.727 0s-1.183.074-1.035-.85 1.072-1.036 1.331-1 1.294.407 1.11 1.184-.444.629-.592.666-.814 0-.814 0z" fill="#fff"/></g></svg>
